X: 1
T: Once in Royal David's City
M: C
L: 1/8
K: D
|: "A7"A2c2 "D"d3d | "A7"dcde   "D"e2d2 | "Bm"d2f2 "F#m"a3f | "G"fe"A7"dc | "D"d4 :|
|: "G"b2b2  "D"a3d | "Em"g2"A7"g2 "D"f4 | "G"b2b2    "D"a3f | "A7"fedc | "D"d4 :|
